X:39
T:no name
R:highland
S:Dermot and Tara Diamond
Z:id:hn-hf-39
M:C|
L:1/8
K:Ador
A2BA GABd | eAfA edBG | A2BA GABd |1 (3efe dB A2E2 :|2 (3efe dB A2Ag ||
edeg a2ba | gedB GABd | edeg a2ba | gedg e2ed |
edeg a2ba | gedB GABG | A2BA GABd | (3efe dB A2E2 ||


